!!!!SEGMENT:pl-sa--481-a-viii-121--038_anonim-ariette.krn
!!!id: 18xx:409
!!!COM: Anonim
!!!OTL: Ariette
!!!PDT:
!!!SMS-siglum: PL-SA
!!!SMS-shelfmark: 481/A VIII 121
!!!NIFC-rismID: 1001070712
!!!URL-scan: http://bc.bdsandomierz.pl/dlibra/publication/1212/edition/1171/content
!!!ONB-nifc: Str. 25, s. 4-5
!!!SMS-variant:
!!!SMS-altvar:
**kern	**kern
*part1	*part1
*staff2	*staff1
*I"Piano	*
*I'P-no	*
*clefF4	*clefG2
*k[]	*k[]
*M2/4	*M2/4
=1	=1
*clefG2	*
!	!LO:TX:a:t=Arietto
4c/ 4g	8ee\L
.	16ff\L
.	16ee\JJ
4f/	8dd\L
.	16ee\L
.	16dd\JJ
=2	=2
*^	*
4c/ 4e	4ryy	4cc\
8r	8ryy	8g\L
!	!LO:TX:b:t=P:problem:niejednoznaczny zapis	!
8g/	8c\ 8e	8cc\J
=3	=3	=3
*2\right	*2\right	*
!	!	!LO:TX:a:t=|:problem
8f/L	2B\	8dd\L
!	!	!LO:TX:a:t=|:problem
8g/J	.	8dd\
*rep	*	*
!	!	!LO:TX:a:t=|:problem
8f/L	.	8dd\
!	!	!LO:TX:a:t=|:problem
8g/J	.	8dd\J
*Xrep	*	*
*v	*v	*
=4	=4
4c/ 4e	4gg\
8g/	8ee\
8r	8r
=5	=5
*clefF4	*
4C\ 4G	8ee\L
.	16ff\L
.	16ee\JJ
4F\	8dd\L
.	16ee\L
.	16dd\JJ
=6	=6
4C\ 4E	4cc\
8r	8g\L
8E\ 8G	8cc\J
=7	=7
!	!LO:TX:a:t=|:problem
4F\ 4A	8dd\L
!	!LO:TX:a:t=|:problem
.	8dd\J
!	!LO:TX:a:t=|:problem
4G\ 4B	8dd\L
.	(>16dd\L
.	16ee\JJ)
=8	=8
4c\	4cc\
!LO:TX:a:t=P:problem:8\left	!
8C/	4r
8r	.
=9:|!|:	=9:|!|:
!	!LO:TX:a:t=P:problem:caudy z prawej strony w taktach 9 - 15
*tremolo	*
8B\L 8d	8gg\L
8G\	8gg\J
!	!LO:TX:a:t=P:problem:4\right
8B\ 8d	4bb\
8G\J	.
=10	=10
8c\L 8e	8gg\L
8G\	8gg\J
8c\ 8e	4ccc\
8G\J	.
=11	=11
8B\L 8d	8ff\L
8G\	8ee\
8B\ 8d	8ff\
8G\J	8gg\J
=12	=12
8c\L 8e	4ee\
8G\	.
8c\ 8e	8cc\
8G\J	8r
=13	=13
8B\L 8d	8gg\L
8G\	8gg\J
!	!LO:TX:a:t=P:problem:4\right
8B\ 8d	4bb\
8G\J	.
!!LO:LB:g=original
=14	=14
8c\L 8e	8gg\L
8G\	8gg\J
8c\ 8e	4ccc\
8G\J	.
=15	=15
.	8qqgg
!	!LO:TX:a:t=|:problem
8B\L 8d	8ff\L
!	!LO:TX:a:t=|:problem
8G\	8ee\
!	!LO:TX:a:t=|:problem
8B\ 8d	8ff\
!	!LO:TX:a:t=|:problem
8G\J	8dd\J
=16	=16
4c\	4cc\
8C/	4r
8r	.
=17:|!|:	=17:|!|:
*clefG2	*
4c/ 4g	8ee\L
.	16ff\L
.	16ee\JJ
4f/	8dd\L
.	16ee\L
.	16dd\JJ
=18	=18
4c/ 4e	4cc\
8r	8g\L
8c/ 8e 8g	8cc\J
=19	=19
*^	*
!	!	!LO:TX:a:t=P:problem:8\right
!	!	!LO:TX:a:t=|:problem
8f/L	2B\	8dd\L
!	!	!LO:TX:a:t=P:problem:8\right
!	!	!LO:TX:a:t=|:problem
8g/J	.	8dd\
*rep	*	*
!	!	!LO:TX:a:t=|:problem
8f/L	.	8dd\
!	!	!LO:TX:a:t=|:problem
8g/J	.	8dd\J
*Xrep	*	*
*v	*v	*
=20	=20
!	!LO:TX:a:t=P:problem:4\right
4c/ 4e	4gg\
!	!LO:TX:a:t=P:problem:8\right
8g/	8ee\
8r	8r
*clefF4	*
=21	=21
4C\ 4G	8ee\L
.	16ff\L
.	16ee\JJ
4F\	8dd\L
.	16ee\L
.	16dd\JJ
=22	=22
4C\ 4E	4cc\
8r	8g\L
!	!LO:TX:a:t=P:problem:8\right
8E\ 8G	8cc\J
=23	=23
!	!LO:TX:a:t=|:problem
4F\ 4A	8dd\L
!	!LO:TX:a:t=|:problem
.	8dd\J
!	!LO:TX:a:t=|:problem
4G\ 4B	8dd\L
.	16dd\L
.	16ee\JJ
=24	=24
4C\ 4c	4cc\
4r	8r
.	8qff#/
.	8gg\
=25	=25
*2\right	*
!	!LO:TX:a:t=|:problem
2G\ 2d 2f	8dd\L
!	!LO:TX:a:t=|:problem
.	8dd\J
*	*Xtuplet
!	!LO:TX:a:t=|:problem
.	12dd\L
.	(>12dd\L
.	12ee\JJ)
=26	=26
4c\ 4e	4cc\
4r	8r
.	8qff#X/
.	8gg\
=27	=27
!	!LO:TX:a:t=|:problem
2G\ 2B 2f	8dd\L
!	!LO:TX:a:t=|:problem
.	8dd\J
!	!LO:TX:a:t=|:problem
.	12dd\L
.	(>12dd\L
!LO:TX:a:t=P:problem:zakończenia utworu na następnej stronie	!
!LO:TX:a:t=Wi	!
.	12ee\JJ)
!!LO:PB:g=original
=28	=28
!	!LO:TX:a:t=de
4c\ 4e\	4cc\
4r	4r
=29	=29
4G\ 4GG\	4bb\ 4gg\ 4dd\
4r	4r
=30	=30
4E 4CC	4ccc\ 4 gg\ 4 ee\ 4 cc\
4r	4r
==	==
*-	*-
!!!system-decoration: {(s1,s2)}
!!!RDF**kern: > = above
!!!RDF**kern: < = below
!!!ENC:Anastazja Marusiak
!!!END:2020-06-15
!!!EED: Mateusz Mrugas
!!!EST: 2020-11-23
